;FLAVOR:Marlin
;TIME:1924
;Filament used: 0.76507m
;Layer height: 0.2
;MINX:90.803
;MINY:102.734
;MINZ:0.2
;MAXX:129.24
;MAXY:117.16
;MAXZ:43.6
;Generated with Cura_SteamEngine main
M82 ;absolute extrusion mode
; Ender 3 Custom Start G-code
G92 E0 ; Reset Extruder
G28 ; Home all axes
M104 S175 ; Start heating up the nozzle most of the way
M190 S60 ; Start heating the bed, wait until target temperature reached
M109 S200 ; Finish heating the nozzle
G1 Z2.0 F3000 ; Move Z Axis up little to prevent scratching of Heat Bed
G1 X0.1 Y20 Z0.3 F5000.0 ; Move to start position
G1 X0.1 Y200.0 Z0.3 F1500.0 E15 ; Draw the first line
G1 X0.4 Y200.0 Z0.3 F5000.0 ; Move to side a little
G1 X0.4 Y20 Z0.3 F1500.0 E30 ; Draw the second line
G92 E0 ; Reset Extruder
G1 Z2.0 F3000 ; Move Z Axis up little to prevent scratching of Heat Bed
G1 X5 Y20 Z0.3 F5000.0 ; Move over to prevent blob squish
G92 E0
G92 E0
G1 F1500 E-6.5
;LAYER_COUNT:218
;LAYER:0
M107
G0 F6000 X122.813 Y103.283 Z0.2
G0 X122.243 Y104.712
;TYPE:SKIRT
G1 F1500 E0
G1 F1200 X122.3 Y104.273 E0.01472
G1 X122.393 Y103.964 E0.02546
G1 X122.571 Y103.599 E0.03896
G1 X122.813 Y103.283 E0.0522
G1 X123.06 Y103.068 E0.06309
G1 X123.33 Y102.892 E0.07381
G1 X123.76 Y102.771 E0.08867
G1 X124.069 Y102.734 E0.09902
G1 X124.419 Y102.747 E0.11067
G1 X124.672 Y102.789 E0.1192
G1 X125.207 Y102.951 E0.13779
G1 X125.527 Y103.116 E0.14977
G1 X125.771 Y103.304 E0.16001
G1 X126.018 Y103.58 E0.17233
G1 X126.375 Y104.174 E0.19538
G1 X126.456 Y104.253 E0.19914
G1 X126.667 Y104.495 E0.20982
G1 X126.82 Y104.732 E0.21921
G1 X126.902 Y105.002 E0.22859
G1 X126.904 Y105.351 E0.2402
G1 X126.713 Y105.879 E0.25887
G1 X126.591 Y106.113 E0.26765
G1 X126.39 Y106.399 E0.27928
G1 X126.206 Y106.598 E0.28829
G1 X126.053 Y106.723 E0.29486
G1 X125.765 Y106.983 E0.30777
G1 X125.563 Y107.139 E0.31626
G1 X125.318 Y107.279 E0.32564
G1 X125.043 Y107.344 E0.33504
G1 X124.785 Y107.334 E0.34363
G1 X124.192 Y107.233 E0.36364
G1 X123.786 Y107.101 E0.37783
G1 X123.393 Y106.914 E0.39231
G1 X123.072 Y106.706 E0.40503
G1 X122.86 Y106.521 E0.41439
G1 X122.684 Y106.229 E0.42573
G1 X122.599 Y106.009 E0.43357
G1 X122.423 Y105.623 E0.44768
G1 X122.276 Y105.124 E0.46499
G1 X122.243 Y104.712 E0.47873
G0 F6000 X122.64 Y104.764
G1 F1200 X122.71 Y104.228 E0.49671
G1 X122.931 Y103.774 E0.51351
G1 X123.076 Y103.584 E0.52146
G1 X123.323 Y103.369 E0.53235
G1 X123.554 Y103.245 E0.54107
G1 X123.963 Y103.13 E0.5552
G1 X124.479 Y103.149 E0.57237
G1 X125.196 Y103.366 E0.59729
G1 X125.527 Y103.621 E0.61119
G1 X125.675 Y103.787 E0.61858
G1 X126.059 Y104.426 E0.64338
G1 X126.154 Y104.516 E0.64773
G1 X126.365 Y104.758 E0.65841
G1 X126.476 Y104.945 E0.66564
G1 X126.524 Y105.227 E0.67516
G1 X126.31 Y105.818 E0.69606
G1 X126.063 Y106.169 E0.71034
G1 X125.811 Y106.404 E0.7218
G1 X125.521 Y106.667 E0.73482
G1 X125.319 Y106.823 E0.74331
G1 X125.125 Y106.923 E0.75057
G1 X124.852 Y106.94 E0.75966
G1 X124.291 Y106.845 E0.77859
G1 X123.899 Y106.712 E0.79236
G1 X123.554 Y106.542 E0.80515
G1 X123.29 Y106.371 E0.81561
G1 X123.098 Y106.19 E0.82439
G1 X122.963 Y105.841 E0.83683
G1 X122.82 Y105.557 E0.84741
G1 X122.659 Y105.011 E0.86634
G1 X122.64 Y104.764 E0.87458
G0 F6000 X123.031 Y104.859
G1 F1200 X123.098 Y104.342 E0.89192
G1 X123.307 Y103.914 E0.90776
G1 X123.619 Y103.643 E0.92151
G1 X124.01 Y103.532 E0.93503
G1 X124.413 Y103.547 E0.94844
G1 X125.01 Y103.728 E0.96919
G1 X125.313 Y103.961 E0.9819
G1 X125.752 Y104.691 E1.01023
G1 X125.853 Y104.779 E1.01469
G1 X126.064 Y105.021 E1.02537
G1 X126.122 Y105.161 E1.03041
G1 X125.951 Y105.633 E1.04711
G1 X125.736 Y105.939 E1.05954
G1 X125.289 Y106.339 E1.07949
G1 X125.074 Y106.506 E1.08855
G1 X124.919 Y106.545 E1.09387
G1 X124.371 Y106.45 E1.11236
G1 X124.071 Y106.351 E1.12287
G1 X123.771 Y106.206 E1.13395
G1 X123.507 Y106.035 E1.14442
G1 X123.43 Y105.939 E1.14851
G1 X123.332 Y105.687 E1.1575
G1 X123.19 Y105.397 E1.16824
G1 X123.031 Y104.859 E1.1869
G1 F1500 E-5.3131
G0 F6000 X122.586 Y104.992
G0 X120.959 Y112.663
G0 X120.95 Y112.992
G1 F1500 E1.1869
G1 F1200 X121.056 Y112.616 E1.19989
G1 X121.251 Y112.282 E1.21276
G1 X121.482 Y112.026 E1.22423
G1 X121.655 Y111.87 E1.23197
G1 X121.888 Y111.61 E1.24359
G1 X122.254 Y111.226 E1.26123
G1 X122.486 Y111.075 E1.27044
G1 X122.74 Y110.984 E1.27941
G1 X123.217 Y110.964 E1.29529
G1 X123.498 Y110.952 E1.30464
G1 X123.854 Y111.087 E1.31731
G1 X124.036 Y111.207 E1.32456
G1 X124.163 Y111.385 E1.33183
G1 X124.216 Y111.703 E1.34255
G1 X124.368 Y111.81 E1.34874
G1 X124.59 Y111.999 E1.35843
G1 X124.759 Y112.207 E1.36735
G1 X124.861 Y112.656 E1.38266
G1 X124.872 Y113.01 E1.39444
G1 X124.903 Y113.31 E1.40447
G1 X124.895 Y113.51 E1.41113
G1 X124.908 Y113.86 E1.42278
G1 X124.761 Y114.152 E1.43365
G1 X124.667 Y114.404 E1.4426
G1 X124.456 Y114.603 E1.45224
G1 X124.07 Y114.773 E1.46627
G1 X123.97 Y114.769 E1.4696
G1 X123.54 Y114.984 E1.48559
G1 X123.134 Y115.053 E1.49929
G1 X122.689 Y115.074 E1.51411
G1 X122.369 Y115.026 E1.52487
G1 X121.769 Y114.872 E1.54547
G1 X121.571 Y114.78 E1.55273
G1 X121.402 Y114.593 E1.56112
G1 X121.197 Y114.241 E1.57466
G1 X121.119 Y113.843 E1.58815
G1 X120.959 Y113.293 E1.6072
G1 X120.95 Y112.992 E1.61722
G0 F6000 X121.328 Y113.129
G1 F1200 X121.411 Y112.801 E1.62847
G1 X121.55 Y112.547 E1.6381
G1 X121.75 Y112.323 E1.64809
G1 X121.939 Y112.152 E1.65657
G1 X122.177 Y111.886 E1.66844
G1 X122.575 Y111.468 E1.68764
G1 X122.915 Y111.347 E1.69964
G1 X123.245 Y111.366 E1.71063
G1 X123.469 Y111.358 E1.71809
G1 X123.697 Y111.455 E1.72633
G1 X123.791 Y111.537 E1.73048
G1 X123.818 Y111.654 E1.73447
G1 X123.8 Y111.904 E1.74281
G1 X124.091 Y112.101 E1.7545
G1 X124.331 Y112.304 E1.76495
G1 X124.396 Y112.412 E1.76915
G1 X124.476 Y112.792 E1.78206
G1 X124.471 Y113.035 E1.79015
G1 X124.503 Y113.294 E1.79883
G1 X124.52 Y113.702 E1.81241
G1 X124.486 Y113.847 E1.81736
G1 X124.387 Y113.989 E1.82312
G1 X124.359 Y114.12 E1.82757
G1 X124.261 Y114.254 E1.8331
G1 X124.082 Y114.354 E1.83991
G1 X123.9 Y114.352 E1.84597
G1 X123.416 Y114.599 E1.86404
G1 X123.041 Y114.661 E1.87668
G1 X122.687 Y114.67 E1.88846
G1 X122.429 Y114.631 E1.89714
G1 X121.87 Y114.485 E1.91636
G1 X121.748 Y114.392 E1.92146
G1 X121.577 Y114.098 E1.93277
G1 X121.51 Y113.757 E1.94433
G1 X121.328 Y113.129 E1.96608
G0 F6000 X120.535 Y113.126
G1 F1200 X120.613 Y112.671 E1.98143
G1 X120.702 Y112.43 E1.98997
G1 X120.951 Y112.017 E2.00601
G1 X121.214 Y111.729 E2.01899
G1 X121.371 Y111.588 E2.02601
G1 X121.598 Y111.334 E2.03734
G1 X121.964 Y110.95 E2.05498
G1 X122.225 Y110.744 E2.06604
G1 X122.605 Y110.608 E2.07946
G1 X122.999 Y110.551 E2.0927
G1 X123.19 Y110.562 E2.09907
G1 X123.487 Y110.547 E2.10896
G1 X123.898 Y110.652 E2.12307
G1 X124.252 Y110.865 E2.13681
G1 X124.443 Y111.072 E2.14618
G1 X124.568 Y111.325 E2.15556
G1 X124.587 Y111.475 E2.16059
G1 X124.849 Y111.695 E2.17197
G1 X125.036 Y111.906 E2.18135
G1 X125.176 Y112.236 E2.19327
G1 X125.251 Y112.568 E2.20459
G1 X125.272 Y112.992 E2.21871
G1 X125.294 Y113.155 E2.22418
G1 X125.296 Y113.482 E2.23506
G1 X125.311 Y113.583 E2.23845
G1 X125.313 Y113.865 E2.24783
G1 X125.237 Y114.136 E2.25719
G1 X125.045 Y114.55 E2.27237
G1 X124.878 Y114.778 E2.28177
G1 X124.569 Y115.015 E2.29472
G1 X124.208 Y115.153 E2.30758
G1 X124.067 Y115.165 E2.31228
G1 X123.806 Y115.298 E2.32203
G1 X123.519 Y115.393 E2.33208
G1 X123.139 Y115.458 E2.3449
G1 X122.648 Y115.474 E2.36124
G1 X122.205 Y115.4 E2.37618
G1 X121.667 Y115.259 E2.39468
G1 X121.407 Y115.15 E2.40406
G1 X121.134 Y114.928 E2.41576
G1 X120.902 Y114.529 E2.43111
G1 X120.786 Y114.221 E2.44206
G1 X120.731 Y113.942 E2.45152
G1 X120.575 Y113.405 E2.47012
G1 X120.535 Y113.126 E2.47949
G1 F1500 E-4.02051
G0 F6000 X112.181 Y112.213
G1 F1500 E2.47949
G1 F1200 X111.071 Y112.77 E2.5208
G1 X110.773 Y112.833 E2.53093
G1 X109.997 Y112.796 E2.55677
G1 X109.741 Y112.725 E2.5656
G1 X109.513 Y112.602 E2.57422
G1 X108.68 Y112.579 E2.60194
G1 X108.41 Y112.521 E2.61112
G1 X108.107 Y112.27 E2.62421
G1 X108.025 Y112.255 E2.62698
G1 X107.59 Y112.364 E2.64189
G1 X107.377 Y112.317 E2.64915
G1 X107.14 Y112.197 E2.65799
G1 X106.548 Y112.408 E2.67889
G1 X106.333 Y112.443 E2.68613
G1 X106.119 Y112.398 E2.69341
G1 X105.922 Y112.266 E2.70129
G1 X105.684 Y112.027 E2.71251
G1 X105.561 Y111.847 E2.71976
G1 X105.51 Y111.635 E2.72702
G1 X105.539 Y111.415 E2.7344
G1 X105.694 Y110.946 E2.75083
G1 X105.401 Y109.093 E2.81322
G1 X105.338 Y108.955 E2.81827
G1 X105.276 Y108.71 E2.82667
G1 X105.363 Y108.115 E2.84667
G1 X105.434 Y107.908 E2.85395
G1 X105.596 Y107.722 E2.86216
G1 X107.347 Y106.405 E2.93503
G1 X107.543 Y106.308 E2.9423
G1 X107.76 Y106.287 E2.94955
G1 X108.003 Y106.363 E2.95802
G1 X108.58 Y106.689 E2.98006
G1 X108.877 Y106.786 E2.99046
G1 X109.086 Y106.906 E2.99847
G1 X109.45 Y107.225 E3.01457
G1 X110.79 Y107.747 E3.0624
G1 X111.039 Y107.463 E3.07496
G1 X111.24 Y107.377 E3.08223
G1 X111.458 Y107.368 E3.08949
G1 X111.745 Y107.461 E3.09953
G1 X112.519 Y107.564 E3.1255
G1 X113.309 Y107.338 E3.15283
G1 X113.526 Y107.317 E3.16008
G1 X113.792 Y107.39 E3.16925
G1 X114.925 Y108.458 E3.22104
G1 X115.378 Y108.234 E3.23785
G1 X115.588 Y108.175 E3.2451
G1 X115.806 Y108.194 E3.25238
G1 X116.002 Y108.29 E3.25964
G1 X116.169 Y108.468 E3.26776
G1 X116.391 Y109.02 E3.28754
G1 X116.423 Y109.051 E3.28903
G1 X116.576 Y109.304 E3.29886
G1 X116.882 Y110.305 E3.33367
G1 X116.907 Y110.521 E3.34091
G1 X116.857 Y110.721 E3.34776
G1 X116.599 Y111.31 E3.36915
G1 X116.584 Y111.46 E3.37416
G1 X116.073 Y112.362 E3.40864
G1 X115.933 Y112.529 E3.41589
G1 X115.742 Y112.635 E3.42316
G1 X115.526 Y112.665 E3.43041
G1 X115.291 Y112.613 E3.43842
G1 X115.149 Y112.629 E3.44317
G1 X114.778 Y112.798 E3.45673
G1 X114.56 Y112.793 E3.46398
G1 X114.182 Y112.613 E3.47791
G1 X113.483 Y112.766 E3.50171
G1 X113.214 Y112.875 E3.51136
G1 X113.001 Y112.919 E3.51859
G1 X112.785 Y112.883 E3.52588
G1 X112.559 Y112.751 E3.53458
G1 X112.181 Y112.213 E3.55645
G1 F1500 E-2.94355
G0 F6000 X107.526 Y111.458
G1 F1500 E3.55645
G1 F1200 X107.081 Y111.37 E3.57154
G1 X106.4 Y111.612 E3.59558
G1 X106.338 Y111.55 E3.59849
G1 X106.515 Y111.012 E3.61733
G1 X106.181 Y108.893 E3.68868
G1 X106.09 Y108.675 E3.69654
G1 X106.143 Y108.313 E3.7087
G1 X107.723 Y107.123 E3.77449
G1 X108.281 Y107.434 E3.79574
G1 X108.59 Y107.534 E3.80654
G1 X109.031 Y107.92 E3.82603
G1 X110.7 Y108.57 E3.88561
G1 X110.831 Y108.575 E3.88997
G1 X111.212 Y108.46 E3.9032
G1 X111.317 Y108.385 E3.9075
G1 X111.446 Y108.203 E3.91492
G1 X111.571 Y108.245 E3.9193
G1 X112.578 Y108.381 E3.9531
G1 X113.421 Y108.138 E3.98228
G1 X114.504 Y109.162 E4.03185
G1 X114.612 Y109.215 E4.03585
G1 X115.005 Y109.273 E4.04907
G1 X115.123 Y109.254 E4.05304
G1 X115.538 Y109.048 E4.06845
G1 X115.697 Y109.437 E4.08243
G1 X115.826 Y109.587 E4.08901
G1 X116.095 Y110.468 E4.11965
G1 X115.821 Y111.093 E4.14234
G1 X115.807 Y111.208 E4.1462
G1 X115.456 Y111.826 E4.16983
G1 X115.331 Y111.804 E4.17406
G1 X114.936 Y111.847 E4.18727
G1 X114.68 Y111.976 E4.19681
G1 X114.374 Y111.804 E4.20848
G1 X114.233 Y111.783 E4.21322
G1 X113.261 Y111.996 E4.24632
G1 X113.062 Y112.074 E4.25343
G1 X112.689 Y111.545 E4.27496
G1 X112.574 Y111.466 E4.2796
G1 X112.188 Y111.368 E4.29284
G1 X112.049 Y111.383 E4.29749
G1 X110.759 Y112.031 E4.34551
G1 X110.081 Y111.999 E4.36808
G1 X109.728 Y111.807 E4.38145
G1 X108.77 Y111.781 E4.41332
G1 X108.454 Y111.52 E4.42695
G1 X107.96 Y111.431 E4.44365
G1 X107.655 Y111.536 E4.45438
G1 X107.526 Y111.458 E4.45939
G0 F6000 X107.825 Y109.047
G1 F1200 X107.849 Y109.03 E4.46037
G1 X108.315 Y109.359 E4.47934
G1 X110.12 Y110.061 E4.54376
G1 X110.486 Y110.161 E4.55638
G1 X110.885 Y110.178 E4.56966
G1 X110.457 Y110.393 E4.58559
G1 X110.184 Y110.28 E4.59542
G1 X109.724 Y110.207 E4.61091
G1 X109.326 Y110.196 E4.62415
G1 X109.196 Y110.11 E4.62934
G1 X108.689 Y109.937 E4.64715
G1 X108.297 Y109.866 E4.6604
G1 X107.95 Y109.84 E4.67198
G1 X107.825 Y109.047 E4.69868
G0 F6000 X107.392 Y108.873
G1 F1200 X107.833 Y108.542 E4.71702
G1 X107.985 Y108.6 E4.72243
G1 X108.213 Y108.8 E4.73252
G1 X108.628 Y109.052 E4.74866
G1 X110.265 Y109.689 E4.80709
G1 X110.589 Y109.772 E4.81821
G1 X110.923 Y109.776 E4.82932
G1 X111.178 Y109.724 E4.83798
G1 X111.559 Y109.609 E4.85122
G1 X111.83 Y109.49 E4.86106
G1 X112.376 Y109.564 E4.87939
G1 X112.71 Y109.569 E4.8905
G1 X113.094 Y109.482 E4.90359
G1 X113.679 Y110.034 E4.93034
G1 X113.948 Y110.233 E4.94147
G1 X114.301 Y110.382 E4.95422
G1 X114.791 Y110.454 E4.97069
G1 X114.715 Y110.639 E4.97734
G1 X114.321 Y110.579 E4.9906
G1 X113.976 Y110.61 E5.00212
G1 X113.537 Y110.706 E5.01706
G1 X113.446 Y110.606 E5.02156
G1 X113.17 Y110.418 E5.03267
G1 X112.87 Y110.303 E5.04335
G1 X112.484 Y110.205 E5.0566
G1 X112.152 Y110.162 E5.06773
G1 X111.82 Y110.199 E5.07884
G1 X111.51 Y110.311 E5.08981
G1 X110.5 Y110.818 E5.12739
G1 X110.343 Y110.776 E5.1328
G1 X110.033 Y110.653 E5.14389
G1 X109.713 Y110.607 E5.15465
G1 X109.205 Y110.593 E5.17155
G1 X108.977 Y110.447 E5.18055
G1 X108.618 Y110.33 E5.19311
G1 X108.226 Y110.259 E5.20636
G1 X107.892 Y110.24 E5.21749
G1 X107.724 Y110.273 E5.22318
G1 X107.61 Y110.251 E5.22704
G1 X107.392 Y108.873 E5.27345
G0 F6000 X106.96 Y108.698
G1 F1200 X107.784 Y108.077 E5.30776
G1 X108.034 Y108.195 E5.31696
G1 X108.187 Y108.245 E5.32231
G1 X108.477 Y108.499 E5.33514
G1 X108.773 Y108.679 E5.34666
G1 X110.41 Y109.316 E5.40508
G1 X110.685 Y109.38 E5.41447
G1 X111.062 Y109.341 E5.42708
G1 X111.443 Y109.226 E5.44032
G1 X111.699 Y109.108 E5.44969
G1 X111.734 Y109.074 E5.45131
G1 X112.429 Y109.168 E5.47464
G1 X112.839 Y109.138 E5.48831
G1 X113.202 Y109.034 E5.50087
G1 X113.954 Y109.744 E5.53527
G1 X114.184 Y109.907 E5.54465
G1 X114.495 Y110.006 E5.5555
G1 X114.888 Y110.064 E5.56871
G1 X115.136 Y110.066 E5.57696
G1 X115.243 Y110.417 E5.58917
G1 X115.088 Y110.771 E5.60202
G1 X114.984 Y111.037 E5.61152
G1 X114.729 Y111.092 E5.6202
G1 X114.502 Y111.004 E5.62829
G1 X114.175 Y110.976 E5.63921
G1 X113.402 Y111.146 E5.66554
G1 X113.149 Y110.879 E5.67777
G1 X112.874 Y110.717 E5.68838
G1 X112.385 Y110.593 E5.70516
G1 X112.105 Y110.563 E5.71453
G1 X111.79 Y110.618 E5.72517
G1 X110.589 Y111.223 E5.76989
G1 X110.301 Y111.209 E5.77948
G1 X110.152 Y111.128 E5.78512
G1 X109.837 Y111.01 E5.79631
G1 X109.09 Y110.989 E5.82117
G1 X108.703 Y110.752 E5.83626
G1 X108.154 Y110.653 E5.85481
G1 X107.872 Y110.642 E5.8642
G1 X107.701 Y110.68 E5.87003
G1 X107.259 Y110.594 E5.885
G1 X106.96 Y108.698 E5.94884
G0 F6000 X106.503 Y108.618
G1 F1200 X106.515 Y108.533 E5.9517
G1 X107.754 Y107.6 E6.00329
G1 X108.104 Y107.797 E6.01664
G1 X108.39 Y107.89 E6.02665
G1 X108.821 Y108.268 E6.04571
G1 X110.555 Y108.943 E6.1076
G1 X110.825 Y108.995 E6.11675
G1 X111.327 Y108.843 E6.13419
G1 X111.521 Y108.743 E6.14145
G1 X111.607 Y108.654 E6.14557
G1 X112.483 Y108.772 E6.17497
G1 X112.729 Y108.754 E6.18317
G1 X113.312 Y108.586 E6.20335
G1 X114.229 Y109.453 E6.24533
G1 X114.448 Y109.596 E6.25402
G1 X114.946 Y109.669 E6.27077
G1 X115.164 Y109.661 E6.27802
G1 X115.332 Y109.597 E6.284
G1 X115.472 Y109.799 E6.29217
G1 X115.669 Y110.444 E6.31461
G1 X115.455 Y110.932 E6.33233
G1 X115.435 Y111.054 E6.33644
G1 X115.23 Y111.413 E6.35019
G1 X114.893 Y111.45 E6.36147
G1 X114.682 Y111.518 E6.36884
G1 X114.363 Y111.384 E6.38035
G1 X114.148 Y111.392 E6.3875
G1 X113.214 Y111.597 E6.41931
G1 X113.016 Y111.315 E6.43077
G1 X112.81 Y111.113 E6.44036
G1 X112.287 Y110.98 E6.45831
G1 X112.069 Y110.966 E6.46558
G1 X111.87 Y111.026 E6.47249
G1 X110.673 Y111.627 E6.51704
G1 X110.192 Y111.605 E6.53306
G1 X109.961 Y111.479 E6.54181
G1 X109.691 Y111.406 E6.55111
G1 X108.919 Y111.385 E6.5768
G1 X108.749 Y111.245 E6.58412
