;FLAVOR:Marlin
;TIME:1511
;Filament used: 0.510721m
;Layer height: 0.2
;MINX:91.553
;MINY:92.181
;MINZ:0.2
;MAXX:128.578
;MAXY:128.041
;MAXZ:30
;Generated with Cura_SteamEngine 5.3.1
M140 S50
M105
M190 S50
M104 S200
M105
M109 S200
M82 ;absolute extrusion mode
; Ender 3 Custom Start G-code
G92 E0 ; Reset Extruder
G28 ; Home all axes
G1 Z2.0 F3000 ; Move Z Axis up little to prevent scratching of Heat Bed
G1 X0.1 Y20 Z0.3 F5000.0 ; Move to start position
G1 X0.1 Y200.0 Z0.3 F1500.0 E15 ; Draw the first line
G1 X0.4 Y200.0 Z0.3 F5000.0 ; Move to side a little
G1 X0.4 Y20 Z0.3 F1500.0 E30 ; Draw the second line
G92 E0 ; Reset Extruder
G1 Z2.0 F3000 ; Move Z Axis up little to prevent scratching of Heat Bed
G1 X5 Y20 Z0.3 F5000.0 ; Move over to prevent blob squish
G92 E0
G92 E0
G1 F2700 E-5
;LAYER_COUNT:150
;LAYER:0
M107
G0 F6000 X97.49 Y98.211 Z0.2
;TYPE:SKIRT
G1 F2700 E0
G1 F1200 X98.134 Y97.578 E0.03003
G1 X98.778 Y97.043 E0.05788
G1 X99.267 Y96.678 E0.07818
G1 X99.917 Y96.219 E0.10464
G1 X100.46 Y95.847 E0.12653
G1 X101.227 Y95.37 E0.15658
G1 X102.006 Y94.975 E0.18563
G1 X102.816 Y94.607 E0.21522
G1 X103.724 Y94.224 E0.24799
G1 X104.572 Y93.914 E0.27802
G1 X105.405 Y93.689 E0.30672
G1 X106.462 Y93.457 E0.34271
G1 X107.594 Y93.244 E0.38103
G1 X108.262 Y93.129 E0.40357
G1 X109.158 Y93.015 E0.43361
G1 X110.061 Y92.981 E0.46367
G1 X110.963 Y93.027 E0.49371
G1 X111.857 Y93.153 E0.52374
G1 X112.498 Y93.293 E0.54556
G1 X113.919 Y93.653 E0.59431
G1 X114.784 Y93.914 E0.62436
G1 X115.502 Y94.196 E0.65002
G1 X116.26 Y94.528 E0.67754
G1 X117.654 Y95.119 E0.7279
G1 X118.252 Y95.382 E0.74963
G1 X119.062 Y95.782 E0.77968
G1 X119.833 Y96.252 E0.80971
G1 X120.56 Y96.788 E0.83975
G1 X121.236 Y97.386 E0.86977
G1 X121.636 Y97.796 E0.88882
G1 X123.705 Y100.034 E0.99019
G1 X124.132 Y100.482 E1.01078
G1 X124.726 Y101.162 E1.04081
G1 X125.249 Y101.88 E1.07035
G1 X125.429 Y102.151 E1.08118
G1 X125.894 Y102.924 E1.11118
G1 X126.456 Y104.143 E1.15582
G1 X126.951 Y105.45 E1.20231
G1 X127.213 Y106.212 E1.22911
G1 X127.468 Y107.079 E1.25917
G1 X127.646 Y107.964 E1.28919
G1 X127.762 Y109.217 E1.33104
G1 X127.778 Y109.74 E1.34845
G1 X127.766 Y110.643 E1.37848
G1 X127.674 Y111.542 E1.40854
G1 X127.502 Y112.428 E1.43856
G1 X127.364 Y112.946 E1.45639
G1 X127.264 Y113.284 E1.46811
G1 X126.97 Y114.138 E1.49815
G1 X126.642 Y114.88 E1.52514
G1 X126.467 Y115.237 E1.53836
G1 X125.967 Y116.137 E1.5726
G1 X124.154 Y119.05 E1.68672
G1 X123.585 Y119.998 E1.7235
G1 X123.087 Y120.751 E1.75352
G1 X122.408 Y121.587 E1.78934
G1 X121.973 Y122.061 E1.81074
G1 X120.946 Y123.127 E1.85998
G1 X120.478 Y123.599 E1.88208
G1 X119.814 Y124.211 E1.91212
G1 X119.099 Y124.763 E1.94216
G1 X118.305 Y125.274 E1.97357
G1 X117.411 Y125.748 E2.00722
G1 X116.578 Y126.098 E2.03727
G1 X115.435 Y126.446 E2.07701
G1 X114.27 Y126.724 E2.11685
G1 X112.881 Y127.022 E2.1641
G1 X111.99 Y127.172 E2.19415
G1 X111.09 Y127.243 E2.22418
G1 X110.187 Y127.234 E2.25421
G1 X109.288 Y127.145 E2.28426
G1 X108.679 Y127.038 E2.30483
G1 X106.421 Y126.572 E2.38151
G1 X102.817 Y125.94 E2.50321
G1 X101.936 Y125.745 E2.53322
G1 X101.075 Y125.472 E2.56326
G1 X99.863 Y124.937 E2.60733
G1 X99.466 Y124.73 E2.62222
G1 X98.685 Y124.278 E2.65223
G1 X97.887 Y123.712 E2.68477
G1 X97.618 Y123.501 E2.69614
G1 X96.933 Y122.912 E2.72619
G1 X96.068 Y121.994 E2.76814
G1 X95.528 Y121.338 E2.7964
G1 X95.208 Y120.93 E2.81365
G1 X94.683 Y120.195 E2.84369
G1 X94.385 Y119.708 E2.86268
G1 X94.158 Y119.312 E2.87786
G1 X93.744 Y118.509 E2.90791
G1 X93.402 Y117.673 E2.93795
G1 X93.106 Y116.69 E2.97209
G1 X92.847 Y115.633 E3.00829
G1 X92.763 Y115.253 E3.02123
G1 X92.577 Y114.1 E3.06008
G1 X92.47 Y113.065 E3.09469
G1 X92.388 Y112.094 E3.1271
G1 X92.353 Y111.192 E3.15712
G1 X92.448 Y109.862 E3.20147
G1 X92.728 Y107.83 E3.26969
G1 X92.84 Y106.963 E3.29877
G1 X92.995 Y106.073 E3.32882
G1 X93.295 Y104.998 E3.36594
G1 X93.783 Y103.557 E3.41654
G1 X94.11 Y102.716 E3.44655
G1 X94.511 Y101.906 E3.47661
G1 X94.981 Y101.135 E3.50664
G1 X95.777 Y100.102 E3.55002
G1 X96.609 Y99.159 E3.59185
G1 X97.49 Y98.211 E3.63489
G0 F6000 X97.21 Y97.926
G1 F1200 X97.878 Y97.27 E3.66603
G1 X98.539 Y96.722 E3.69459
G1 X99.036 Y96.351 E3.71522
G1 X99.691 Y95.889 E3.74187
G1 X100.249 Y95.507 E3.76437
G1 X101.046 Y95.013 E3.79555
G1 X101.841 Y94.611 E3.82518
G1 X102.661 Y94.238 E3.85515
G1 X103.587 Y93.848 E3.88857
G1 X104.435 Y93.538 E3.9186
G1 X105.319 Y93.298 E3.94906
G1 X106.388 Y93.064 E3.98546
G1 X107.526 Y92.85 E4.02397
G1 X108.212 Y92.732 E4.04712
G1 X109.143 Y92.615 E4.07833
G1 X110.046 Y92.581 E4.10839
G1 X111.019 Y92.631 E4.14079
G1 X111.942 Y92.762 E4.1718
G1 X112.596 Y92.905 E4.19407
G1 X114.035 Y93.27 E4.24344
G1 X114.9 Y93.531 E4.27349
G1 X115.662 Y93.83 E4.30072
G1 X116.416 Y94.16 E4.32809
G1 X117.815 Y94.753 E4.37863
G1 X118.429 Y95.023 E4.40094
G1 X119.27 Y95.44 E4.43216
G1 X120.041 Y95.91 E4.4622
G1 X120.825 Y96.488 E4.49459
G1 X121.501 Y97.086 E4.52461
G1 X121.93 Y97.524 E4.545
G1 X123.995 Y99.758 E4.64619
G1 X124.433 Y100.219 E4.66734
G1 X125.049 Y100.926 E4.69852
G1 X125.582 Y101.659 E4.72867
G1 X125.772 Y101.945 E4.74009
G1 X126.237 Y102.718 E4.77009
G1 X126.83 Y104.001 E4.8171
G1 X127.329 Y105.32 E4.86401
G1 X127.597 Y106.099 E4.89141
G1 X127.852 Y106.966 E4.92146
G1 X128.038 Y107.885 E4.95265
G1 X128.162 Y109.205 E4.99675
G1 X128.178 Y109.745 E5.01472
G1 X128.164 Y110.684 E5.04595
G1 X128.067 Y111.618 E5.07718
G1 X127.889 Y112.531 E5.10812
G1 X127.748 Y113.059 E5.1263
G1 X127.642 Y113.414 E5.13862
G1 X127.336 Y114.3 E5.1698
G1 X127.001 Y115.056 E5.1973
G1 X126.817 Y115.431 E5.21119
G1 X126.307 Y116.348 E5.24609
G1 X124.494 Y119.261 E5.36021
G1 X123.919 Y120.219 E5.39737
G1 X123.421 Y120.972 E5.4274
G1 X122.703 Y121.857 E5.4653
G1 X122.261 Y122.339 E5.48705
G1 X121.23 Y123.409 E5.53648
G1 X120.749 Y123.893 E5.55917
G1 X120.058 Y124.528 E5.59038
G1 X119.343 Y125.08 E5.62043
G1 X118.492 Y125.627 E5.65407
G1 X117.566 Y126.117 E5.68892
G1 X116.695 Y126.481 E5.72032
G1 X115.552 Y126.829 E5.76006
G1 X114.354 Y127.115 E5.80102
G1 X112.947 Y127.416 E5.84888
G1 X112.021 Y127.571 E5.88011
G1 X111.121 Y127.642 E5.91013
G1 X110.148 Y127.632 E5.9425
G1 X109.219 Y127.539 E5.97355
G1 X108.598 Y127.43 E5.99452
G1 X106.34 Y126.964 E6.0712
G1 X102.731 Y126.331 E6.19307
G1 X101.85 Y126.136 E6.22308
G1 X100.913 Y125.838 E6.25579
G1 X99.678 Y125.292 E6.3007
G1 X99.281 Y125.085 E6.31559
G1 X98.454 Y124.604 E6.34741
G1 X97.64 Y124.027 E6.3806
G1 X97.357 Y123.804 E6.39258
G1 X96.672 Y123.215 E6.42263
G1 X95.759 Y122.248 E6.46686
G1 X95.213 Y121.585 E6.49543
G1 X94.893 Y121.177 E6.51267
G1 X94.342 Y120.404 E6.54425
G1 X94.038 Y119.907 E6.56362
G1 X93.802 Y119.495 E6.57941
G1 X93.388 Y118.692 E6.60946
G1 X93.019 Y117.788 E6.64194
G1 X92.717 Y116.785 E6.67678
G1 X92.456 Y115.719 E6.71328
G1 X92.368 Y115.317 E6.72697
G1 X92.179 Y114.141 E6.76658
G1 X92.071 Y113.099 E6.80143
G1 X91.988 Y112.11 E6.83444
G1 X91.953 Y111.208 E6.86446
G1 X92.049 Y109.834 E6.91027
G1 X92.446 Y106.894 E7.00894
G1 X92.601 Y106.004 E7.03899
G1 X92.916 Y104.87 E7.07813
G1 X93.41 Y103.412 E7.12934
G1 X93.737 Y102.571 E7.15935
G1 X94.169 Y101.698 E7.19174
G1 X94.639 Y100.927 E7.22178
G1 X95.477 Y99.837 E7.26751
G1 X96.316 Y98.887 E7.30966
G1 X97.21 Y97.926 E7.35332
G0 F6000 X96.93 Y97.641
G1 F1200 X97.623 Y96.962 E7.38559
G1 X98.3 Y96.401 E7.41483
G1 X98.805 Y96.024 E7.43579
G1 X99.465 Y95.559 E7.46264
G1 X100.038 Y95.167 E7.48573
G1 X100.865 Y94.656 E7.51807
G1 X101.675 Y94.247 E7.54825
G1 X102.506 Y93.869 E7.57861
G1 X103.45 Y93.472 E7.61267
G1 X104.298 Y93.162 E7.6427
G1 X105.233 Y92.907 E7.67494
G1 X106.314 Y92.671 E7.71174
G1 X107.458 Y92.456 E7.75045
G1 X108.162 Y92.335 E7.77421
G1 X109.128 Y92.215 E7.80659
G1 X110.031 Y92.181 E7.83664
G1 X111.075 Y92.235 E7.87141
G1 X112.027 Y92.371 E7.9034
G1 X112.694 Y92.517 E7.92611
G1 X114.151 Y92.887 E7.97611
G1 X115.016 Y93.148 E8.00616
G1 X115.822 Y93.464 E8.03495
G1 X116.572 Y93.792 E8.06218
G1 X117.976 Y94.387 E8.1129
G1 X118.607 Y94.665 E8.13583
G1 X119.478 Y95.098 E8.16818
G1 X120.249 Y95.568 E8.19821
G1 X121.09 Y96.188 E8.23297
G1 X121.766 Y96.786 E8.26298
G1 X122.224 Y97.252 E8.28472
G1 X124.285 Y99.482 E8.38571
G1 X124.735 Y99.956 E8.40745
G1 X125.351 Y100.663 E8.43864
G1 X125.915 Y101.438 E8.47052
G1 X126.115 Y101.739 E8.48254
G1 X126.58 Y102.512 E8.51254
G1 X127.204 Y103.859 E8.56192
G1 X127.707 Y105.19 E8.60924
G1 X127.981 Y105.986 E8.63724
G1 X128.236 Y106.853 E8.6673
G1 X128.43 Y107.806 E8.69965
G1 X128.562 Y109.193 E8.74599
G1 X128.578 Y109.751 E8.76455
G1 X128.562 Y110.725 E8.79695
G1 X128.46 Y111.695 E8.82939
G1 X128.282 Y112.608 E8.86033
G1 X128.131 Y113.173 E8.87978
G1 X128.02 Y113.545 E8.8927
G1 X127.702 Y114.462 E8.92498
G1 X127.36 Y115.232 E8.953
G1 X127.167 Y115.625 E8.96756
G1 X126.647 Y116.559 E9.00312
G1 X124.834 Y119.472 E9.11724
G1 X124.253 Y120.44 E9.15479
G1 X123.755 Y121.193 E9.18481
G1 X123.014 Y122.109 E9.224
G1 X122.549 Y122.617 E9.24691
G1 X121.514 Y123.691 E9.29651
G1 X121.02 Y124.188 E9.31982
G1 X120.329 Y124.823 E9.35103
G1 X119.587 Y125.397 E9.38224
G1 X118.679 Y125.981 E9.41814
G1 X117.753 Y126.471 E9.45299
G1 X116.812 Y126.864 E9.48691
G1 X115.669 Y127.212 E9.52665
G1 X114.438 Y127.506 E9.56874
G1 X113.013 Y127.811 E9.61721
G1 X112.087 Y127.966 E9.64844
G1 X111.152 Y128.041 E9.67963
G1 X110.108 Y128.03 E9.71436
G1 X109.15 Y127.933 E9.74639
G1 X108.517 Y127.822 E9.76776
G1 X106.259 Y127.356 E9.84445
G1 X102.645 Y126.722 E9.96648
G1 X101.764 Y126.527 E9.99649
G1 X100.751 Y126.204 E10.03186
G1 X99.493 Y125.647 E10.07762
G1 X99.08 Y125.431 E10.09312
G1 X98.253 Y124.95 E10.12494
G1 X97.392 Y124.341 E10.16002
G1 X97.096 Y124.107 E10.17257
G1 X96.381 Y123.49 E10.20398
G1 X95.468 Y122.523 E10.24821
G1 X94.898 Y121.832 E10.278
G1 X94.567 Y121.409 E10.29587
G1 X94.016 Y120.636 E10.32744
G1 X93.691 Y120.106 E10.34812
G1 X93.446 Y119.678 E10.36452
G1 X93.032 Y118.875 E10.39457
G1 X92.636 Y117.903 E10.42948
G1 X92.328 Y116.88 E10.46501
G1 X92.065 Y115.805 E10.50182
G1 X91.973 Y115.38 E10.51628
G1 X91.781 Y114.182 E10.55664
G1 X91.672 Y113.132 E10.59175
G1 X91.588 Y112.126 E10.62533
G1 X91.553 Y111.224 E10.65535
G1 X91.65 Y109.806 E10.70262
G1 X92.052 Y106.825 E10.80267
G1 X92.207 Y105.935 E10.83271
G1 X92.537 Y104.742 E10.87388
G1 X93.037 Y103.267 E10.92569
G1 X93.378 Y102.394 E10.95686
G1 X93.827 Y101.49 E10.99043
G1 X94.297 Y100.719 E11.02046
G1 X95.177 Y99.572 E11.06855
G1 X96.023 Y98.615 E11.11103
G1 X96.93 Y97.641 E11.1553
G1 F2700 E6.1553
G0 F6000 X105.091 Y105.295
G1 F2700 E11.1553
G1 F1200 X106.344 Y104.41 E11.20632
G1 X107.742 Y103.804 E11.257
G1 X108.181 Y103.715 E11.27189
G1 X109.846 Y103.401 E11.32825
G1 X109.895 Y103.485 E11.33148
G1 X109.961 Y103.524 E11.33403
G1 X110.364 Y103.666 E11.34824
G1 X110.389 Y103.673 E11.34911
G1 X110.766 Y103.751 E11.36191
G1 X110.775 Y103.752 E11.36221
G1 X111.316 Y103.84 E11.38044
G1 X111.439 Y103.821 E11.38458
G1 X111.477 Y103.785 E11.38632
G1 X112.901 Y104.488 E11.43914
G1 X113.31 Y104.731 E11.45497
G1 X113.317 Y104.735 E11.45524
G1 X113.842 Y105.018 E11.47507
G1 X113.965 Y105.04 E11.47923
G1 X114.039 Y105.014 E11.48184
G1 X114.055 Y105.004 E11.48246
G1 X114.149 Y105.246 E11.4911
G1 X114.163 Y105.275 E11.49217
G1 X114.432 Y105.733 E11.50984
G1 X114.447 Y105.756 E11.51075
G1 X114.746 Y106.135 E11.52681
G1 X114.762 Y106.153 E11.52761
G1 X115.044 Y106.434 E11.54085
G1 X115.051 Y106.441 E11.54118
G1 X115.242 Y106.613 E11.54973
G1 X115.251 Y106.62 E11.55011
G1 X115.641 Y106.932 E11.56672
G1 X115.652 Y106.94 E11.56717
G1 X116.021 Y107.196 E11.58211
G1 X116.03 Y107.202 E11.58247
G1 X116.342 Y107.393 E11.59463
G1 X116.612 Y107.653 E11.6071
G1 X116.784 Y107.915 E11.61753
G1 X117.369 Y109.532 E11.67472
G1 X117.392 Y110.034 E11.69143
G1 X117.289 Y110.375 E11.70328
G1 X117.165 Y110.616 E11.71229
G1 X116.986 Y110.837 E11.72175
G1 X116.745 Y111.047 E11.73239
G1 X116.541 Y111.164 E11.74021
G1 X115.89 Y110.016 E11.7841
G1 X114.649 Y107.777 E11.86925
G1 X114.64 Y107.762 E11.86983
G1 X114.077 Y106.925 E11.90338
G1 X114.02 Y106.869 E11.90604
G1 X113.814 Y106.736 E11.91419
G1 X113.512 Y106.414 E11.92887
G1 X113.475 Y106.383 E11.93048
G1 X112.83 Y105.966 E11.95603
G1 X112.739 Y105.935 E11.95922
G1 X112.24 Y105.889 E11.97589
G1 X112.211 Y105.871 E11.97702
G1 X112.149 Y105.844 E11.97927
G1 X111.052 Y105.582 E12.01679
G1 X110.994 Y105.577 E12.01872
G1 X110.08 Y105.633 E12.04918
G1 X110.052 Y105.637 E12.05012
G1 X109.682 Y105.713 E12.06268
G1 X109.644 Y105.725 E12.06401
G1 X107.598 Y106.595 E12.13796
G1 X107.56 Y106.616 E12.1394
G1 X105.617 Y108.004 E12.21882
G1 X105.569 Y108.052 E12.22108
G1 X104.914 Y108.99 E12.25913
G1 X104.888 Y109.043 E12.26109
G1 X104.539 Y110.12 E12.29875
G1 X104.529 Y110.187 E12.301
G1 X104.53 Y110.219 E12.30207
G1 X104.311 Y110.661 E12.31847
G1 X104.29 Y110.755 E12.32168
G1 X104.311 Y111.526 E12.34733
G1 X104.318 Y111.573 E12.34891
G1 X104.434 Y111.999 E12.36359
G1 X104.44 Y112.242 E12.37168
G1 X104.458 Y112.321 E12.37437
G1 X104.882 Y113.241 E12.40807
G1 X104.889 Y113.255 E12.40859
G1 X105.277 Y113.949 E12.43503
G1 X106.106 Y115.398 E12.49056
G1 X105.746 Y115.601 E12.5043
G1 X105.462 Y115.712 E12.51444
G1 X105.247 Y115.755 E12.52174
G1 X105.018 Y115.767 E12.52936
G1 X104.646 Y115.715 E12.54186
G1 X104.285 Y115.526 E12.55541
G1 X104.05 Y115.342 E12.56534
G1 X103.391 Y114.526 E12.60022
G1 X103.199 Y114.193 E12.61301
G1 X103.108 Y113.823 E12.62568
G1 X103.095 Y113.803 E12.62647
G1 X102.912 Y113.023 E12.65312
G1 X102.887 Y112.649 E12.66559
G1 X102.886 Y112.642 E12.66582
G1 X102.825 Y112.04 E12.68595
G1 X102.919 Y111.504 E12.70405
G1 X102.876 Y111.342 E12.70962
G1 X102.842 Y111.301 E12.71139
G1 X102.852 Y111.295 E12.71178
G1 X102.945 Y111.148 E12.71757
G1 X102.995 Y110.719 E12.73193
G1 X102.996 Y110.696 E12.7327
G1 X102.995 Y110.04 E12.75452
G1 X103.13 Y108.462 E12.80719
G1 X103.207 Y108.441 E12.80985
G1 X103.28 Y108.354 E12.81362
G1 X103.543 Y107.749 E12.83557
G1 X103.555 Y107.624 E12.83974
G1 X103.641 Y107.487 E12.84512
G1 X103.668 Y107.42 E12.84753
G1 X103.762 Y106.951 E12.86343
G1 X103.747 Y106.827 E12.86759
G1 X103.721 Y106.793 E12.86901
G1 X105.091 Y105.295 E12.93653
G0 F6000 X105.355 Y105.599
G1 F1200 X106.543 Y104.76 E12.9849
G1 X107.862 Y104.188 E13.03272
G1 X108.255 Y104.108 E13.04606
G1 X109.702 Y103.835 E13.09504
G1 X109.828 Y103.901 E13.09977
G1 X110.231 Y104.043 E13.11398
G1 X110.308 Y104.065 E13.11664
G1 X110.685 Y104.143 E13.12945
G1 X110.711 Y104.147 E13.13032
G1 X111.252 Y104.235 E13.14855
G1 X111.47 Y104.231 E13.1558
G1 X112.714 Y104.842 E13.2019
G1 X113.106 Y105.075 E13.21707
G1 X113.127 Y105.087 E13.21787
G1 X113.652 Y105.37 E13.23771
G1 X113.787 Y105.413 E13.24242
G1 X113.818 Y105.478 E13.24482
G1 X114.087 Y105.936 E13.26248
G1 X114.133 Y106.004 E13.26521
G1 X114.432 Y106.383 E13.28127
G1 X114.479 Y106.436 E13.28363
G1 X114.761 Y106.717 E13.29687
G1 X114.783 Y106.738 E13.29788
G1 X114.974 Y106.91 E13.30643
G1 X115.001 Y106.933 E13.30761
G1 X115.391 Y107.245 E13.32422
G1 X115.424 Y107.269 E13.32558
G1 X115.793 Y107.525 E13.34051
G1 X115.821 Y107.543 E13.34162
G1 X116.097 Y107.712 E13.35239
G1 X116.3 Y107.907 E13.36175
G1 X116.425 Y108.098 E13.36934
G1 X116.973 Y109.612 E13.42289
G1 X116.989 Y109.982 E13.43521
G1 X116.917 Y110.223 E13.44358
G1 X116.828 Y110.396 E13.45005
G1 X116.698 Y110.557 E13.45693
G1 X116.67 Y110.581 E13.45816
G1 X116.238 Y109.819 E13.48729
G1 X114.999 Y107.583 E13.57231
G1 X114.972 Y107.539 E13.57403
G1 X114.409 Y106.702 E13.60758
G1 X114.237 Y106.533 E13.6156
G1 X114.074 Y106.428 E13.62205
