;FLAVOR:Marlin
;TIME:630
;Filament used: 0.132569m
;Layer height: 0.12
;MINX:91.5
;MINY:92.25
;MINZ:0.12
;MAXX:128.499
;MAXY:127.75
;MAXZ:5.04
;Generated with Cura_SteamEngine main
M82 ;absolute extrusion mode
; Ender 3 Custom Start G-code
G92 E0 ; Reset Extruder
G28 ; Home all axes
M104 S175 ; Start heating up the nozzle most of the way
M190 S60 ; Start heating the bed, wait until target temperature reached
M109 S200 ; Finish heating the nozzle
G1 Z2.0 F3000 ; Move Z Axis up little to prevent scratching of Heat Bed
G1 X0.1 Y20 Z0.3 F5000.0 ; Move to start position
G1 X0.1 Y200.0 Z0.3 F1500.0 E15 ; Draw the first line
G1 X0.4 Y200.0 Z0.3 F5000.0 ; Move to side a little
G1 X0.4 Y20 Z0.3 F1500.0 E30 ; Draw the second line
G92 E0 ; Reset Extruder
G1 Z2.0 F3000 ; Move Z Axis up little to prevent scratching of Heat Bed
G1 X5 Y20 Z0.3 F5000.0 ; Move over to prevent blob squish
G92 E0
G92 E0
G1 F1500 E-6.5
;LAYER_COUNT:42
;LAYER:0
M107
G0 F6000 X94.706 Y95.507 Z0.12
G0 X91.501 Y103.788
;TYPE:SKIRT
G1 F1500 E0
G1 F1200 X91.511 Y103.099 E0.01375
G1 X91.565 Y102.163 E0.03246
G1 X91.698 Y101.235 E0.05117
G1 X91.91 Y100.321 E0.06989
G1 X92.198 Y99.429 E0.0886
G1 X92.562 Y98.564 E0.10733
G1 X92.998 Y97.734 E0.12604
G1 X93.503 Y96.944 E0.14475
G1 X94.074 Y96.2 E0.16346
G1 X94.706 Y95.507 E0.18218
G1 X95.395 Y94.87 E0.20091
G1 X96.135 Y94.294 E0.21962
G1 X96.922 Y93.784 E0.23834
G1 X97.75 Y93.342 E0.25707
G1 X98.612 Y92.973 E0.27578
G1 X99.502 Y92.678 E0.29449
G1 X100.414 Y92.46 E0.3132
G1 X101.342 Y92.321 E0.33193
G1 X102.201 Y92.263 E0.34911
G1 X102.83 Y92.25 E0.36166
G1 X106.964 Y92.251 E0.44416
G1 X107.672 Y92.262 E0.45829
G1 X108.608 Y92.317 E0.477
G1 X109.536 Y92.451 E0.49572
G1 X110.45 Y92.664 E0.51444
G1 X111.47 Y93.002 E0.53589
G1 X114.353 Y94.118 E0.59758
G1 X116.734 Y94.957 E0.64796
G1 X118.414 Y95.507 E0.68324
G1 X119.292 Y95.836 E0.70195
G1 X120.139 Y96.239 E0.72067
G1 X120.949 Y96.713 E0.7394
G1 X121.715 Y97.253 E0.7581
G1 X122.503 Y97.923 E0.77874
G1 X123.006 Y98.401 E0.79259
G1 X123.702 Y99.098 E0.81224
G1 X124.285 Y99.697 E0.82893
G1 X124.909 Y100.397 E0.84764
G1 X125.471 Y101.148 E0.86636
G1 X125.968 Y101.943 E0.88507
G1 X126.395 Y102.779 E0.9038
G1 X126.792 Y103.771 E0.92512
G1 X127.834 Y106.773 E0.98854
G1 X128.116 Y107.668 E1.00727
G1 X128.32 Y108.583 E1.02597
G1 X128.445 Y109.512 E1.04468
G1 X128.49 Y110.341 E1.06125
G1 X128.499 Y110.903 E1.07246
G1 X128.499 Y116.165 E1.17747
G1 X128.489 Y116.892 E1.19198
G1 X128.436 Y117.829 E1.21071
G1 X128.304 Y118.757 E1.22942
G1 X128.093 Y119.671 E1.24814
G1 X127.804 Y120.563 E1.26685
G1 X127.441 Y121.428 E1.28557
G1 X127.006 Y122.259 E1.30429
G1 X126.501 Y123.049 E1.323
G1 X125.931 Y123.794 E1.34172
G1 X125.3 Y124.488 E1.36044
G1 X124.611 Y125.125 E1.37916
G1 X123.871 Y125.701 E1.39788
G1 X123.085 Y126.212 E1.41658
G1 X122.258 Y126.654 E1.4353
G1 X121.396 Y127.024 E1.45402
G1 X120.506 Y127.319 E1.47273
G1 X119.594 Y127.538 E1.49145
G1 X118.667 Y127.678 E1.51015
G1 X117.799 Y127.737 E1.52752
G1 X117.17 Y127.75 E1.54007
G1 X113.051 Y127.749 E1.62227
G1 X112.346 Y127.739 E1.63634
G1 X111.41 Y127.686 E1.65505
G1 X110.481 Y127.553 E1.67378
G1 X109.567 Y127.341 E1.6925
G1 X108.675 Y127.053 E1.71121
G1 X107.811 Y126.689 E1.72992
G1 X106.98 Y126.254 E1.74864
G1 X106.206 Y125.76 E1.76696
G1 X105.563 Y125.311 E1.78261
G1 X103.408 Y123.855 E1.83451
G1 X101.293 Y122.512 E1.88451
G1 X99.088 Y121.198 E1.93573
G1 X97.131 Y120.099 E1.98052
G1 X96.333 Y119.605 E1.99925
G1 X95.581 Y119.046 E2.01795
G1 X94.879 Y118.424 E2.03667
G1 X94.232 Y117.744 E2.0554
G1 X93.646 Y117.012 E2.07411
G1 X93.124 Y116.233 E2.09283
G1 X92.671 Y115.412 E2.11154
G1 X92.289 Y114.556 E2.13024
G1 X91.981 Y113.67 E2.14896
G1 X91.75 Y112.761 E2.16768
G1 X91.597 Y111.835 E2.18641
G1 X91.519 Y110.713 E2.20885
G1 X91.5 Y109.594 E2.23119
G1 X91.501 Y103.788 E2.34705
G0 F6000 X91.901 Y103.794
G1 F1200 X91.911 Y103.105 E2.36081
G1 X91.964 Y102.186 E2.37918
G1 X92.097 Y101.275 E2.39755
G1 X92.309 Y100.379 E2.41592
G1 X92.597 Y99.505 E2.43429
G1 X92.96 Y98.659 E2.45266
G1 X93.395 Y97.847 E2.47104
G1 X93.899 Y97.077 E2.48941
G1 X94.468 Y96.353 E2.50778
G1 X95.098 Y95.681 E2.52616
G1 X95.783 Y95.067 E2.54452
G1 X96.52 Y94.514 E2.56291
G1 X97.301 Y94.027 E2.58128
G1 X98.122 Y93.61 E2.59965
G1 X98.976 Y93.266 E2.61803
G1 X99.856 Y92.997 E2.63639
G1 X100.757 Y92.805 E2.65477
G1 X101.67 Y92.692 E2.67313
G1 X102.212 Y92.663 E2.68396
G1 X102.83 Y92.65 E2.6963
G1 X106.958 Y92.651 E2.77868
G1 X107.666 Y92.662 E2.79281
G1 X108.585 Y92.717 E2.81118
G1 X109.496 Y92.85 E2.82955
G1 X110.391 Y93.063 E2.84791
G1 X111.326 Y93.375 E2.86758
G1 X114.213 Y94.492 E2.92936
G1 X116.603 Y95.335 E2.97993
G1 X118.29 Y95.887 E3.01536
G1 X119.152 Y96.211 E3.03373
G1 X119.982 Y96.608 E3.0521
G1 X120.775 Y97.076 E3.07047
G1 X121.524 Y97.611 E3.08884
G1 X122.23 Y98.215 E3.10738
G1 X122.723 Y98.684 E3.12096
G1 X123.419 Y99.381 E3.14062
G1 X123.998 Y99.976 E3.15718
G1 X124.61 Y100.663 E3.17555
G1 X125.16 Y101.402 E3.19393
G1 X125.645 Y102.185 E3.21231
G1 X126.059 Y103.007 E3.23068
G1 X126.414 Y103.902 E3.24989
G1 X127.458 Y106.909 E3.31341
G1 X127.734 Y107.788 E3.3318
G1 X127.932 Y108.687 E3.35017
G1 X128.051 Y109.6 E3.36854
G1 X128.09 Y110.347 E3.38347
G1 X128.099 Y110.909 E3.39469
G1 X128.099 Y116.16 E3.49948
G1 X128.089 Y116.887 E3.51399
G1 X128.036 Y117.806 E3.53236
G1 X127.904 Y118.717 E3.55073
G1 X127.693 Y119.613 E3.5691
G1 X127.406 Y120.488 E3.58747
G1 X127.043 Y121.334 E3.60584
G1 X126.609 Y122.146 E3.62422
G1 X126.105 Y122.917 E3.6426
G1 X125.537 Y123.641 E3.66096
G1 X124.908 Y124.313 E3.67933
G1 X124.223 Y124.928 E3.6977
G1 X123.487 Y125.481 E3.71607
G1 X122.706 Y125.969 E3.73445
G1 X121.886 Y126.387 E3.75282
G1 X121.032 Y126.732 E3.7712
G1 X120.152 Y127.001 E3.78956
G1 X119.251 Y127.194 E3.80795
G1 X118.338 Y127.307 E3.82631
G1 X117.788 Y127.337 E3.8373
G1 X117.17 Y127.35 E3.84964
G1 X113.057 Y127.349 E3.93172
G1 X112.352 Y127.339 E3.94579
G1 X111.433 Y127.286 E3.96416
G1 X110.521 Y127.153 E3.98255
G1 X109.625 Y126.942 E4.00092
G1 X108.751 Y126.654 E4.01929
G1 X107.905 Y126.291 E4.03766
G1 X107.093 Y125.856 E4.05604
G1 X106.435 Y125.432 E4.07166
G1 X105.764 Y124.964 E4.08799
G1 X103.641 Y123.529 E4.13912
G1 X101.491 Y122.164 E4.18995
G1 X99.295 Y120.855 E4.24096
G1 X97.327 Y119.75 E4.28601
G1 X96.544 Y119.265 E4.30439
G1 X95.807 Y118.714 E4.32275
G1 X95.12 Y118.101 E4.34112
G1 X94.489 Y117.43 E4.3595
G1 X93.919 Y116.707 E4.37788
G1 X93.413 Y115.938 E4.39625
G1 X92.977 Y115.128 E4.41461
G1 X92.612 Y114.282 E4.43299
G1 X92.322 Y113.409 E4.45135
G1 X92.108 Y112.513 E4.46973
G1 X91.974 Y111.602 E4.48811
G1 X91.919 Y110.705 E4.50604
G1 X91.9 Y109.594 E4.52822
G1 X91.901 Y103.794 E4.64396
G0 F6000 X92.301 Y103.8
G1 F1200 X92.311 Y103.111 E4.65771
G1 X92.364 Y102.209 E4.67575
G1 X92.497 Y101.316 E4.69376
G1 X92.708 Y100.438 E4.71178
G1 X92.996 Y99.582 E4.72981
G1 X93.358 Y98.755 E4.74782
G1 X93.793 Y97.963 E4.76586
G1 X94.295 Y97.213 E4.78387
G1 X94.862 Y96.51 E4.80189
G1 X95.489 Y95.86 E4.81991
G1 X96.171 Y95.268 E4.83793
G1 X96.903 Y94.738 E4.85597
G1 X97.679 Y94.276 E4.87399
G1 X98.492 Y93.884 E4.892
G1 X99.337 Y93.565 E4.91003
G1 X100.207 Y93.322 E4.92805
G1 X101.095 Y93.158 E4.94607
G1 X102.223 Y93.063 E4.96866
G1 X102.83 Y93.05 E4.98078
G1 X106.951 Y93.051 E5.06302
G1 X107.659 Y93.062 E5.07715
G1 X108.561 Y93.116 E5.09518
G1 X109.454 Y93.25 E5.1132
G1 X110.332 Y93.462 E5.13123
G1 X111.182 Y93.748 E5.14913
G1 X114.072 Y94.866 E5.21096
G1 X116.485 Y95.717 E5.26202
G1 X118.165 Y96.267 E5.2973
G1 X119.011 Y96.586 E5.31535
G1 X119.824 Y96.978 E5.33336
G1 X120.6 Y97.44 E5.35138
G1 X121.332 Y97.969 E5.3694
G1 X121.957 Y98.507 E5.38586
G1 X122.44 Y98.967 E5.39917
G1 X123.136 Y99.664 E5.41883
G1 X123.711 Y100.255 E5.43528
G1 X124.311 Y100.93 E5.45331
G1 X124.849 Y101.655 E5.47132
G1 X125.321 Y102.425 E5.48935
G1 X125.722 Y103.234 E5.50736
G1 X126.036 Y104.032 E5.52448
G1 X127.082 Y107.045 E5.58813
G1 X127.351 Y107.907 E5.60615
G1 X127.544 Y108.79 E5.62418
G1 X127.657 Y109.686 E5.64221
G1 X127.69 Y110.354 E5.65555
G1 X127.699 Y110.916 E5.66677
G1 X127.699 Y116.154 E5.7713
G1 X127.689 Y116.881 E5.78581
G1 X127.637 Y117.783 E5.80384
G1 X127.505 Y118.676 E5.82185
G1 X127.294 Y119.555 E5.83989
G1 X127.007 Y120.411 E5.85791
G1 X126.645 Y121.238 E5.87593
G1 X126.211 Y122.03 E5.89395
G1 X125.709 Y122.781 E5.91197
G1 X125.143 Y123.484 E5.92999
G1 X124.516 Y124.135 E5.94802
G1 X123.835 Y124.727 E5.96603
G1 X123.104 Y125.257 E5.98405
G1 X122.328 Y125.72 E6.00208
G1 X121.515 Y126.113 E6.0201
G1 X120.67 Y126.433 E6.03813
G1 X119.801 Y126.676 E6.05614
G1 X118.913 Y126.841 E6.07417
G1 X117.777 Y126.937 E6.09692
G1 X117.17 Y126.95 E6.10903
G1 X113.062 Y126.949 E6.19101
G1 X112.357 Y126.939 E6.20508
G1 X111.456 Y126.886 E6.22309
G1 X110.562 Y126.754 E6.24113
G1 X109.684 Y126.543 E6.25915
G1 X108.828 Y126.255 E6.27717
G1 X108.001 Y125.893 E6.29519
G1 X107.209 Y125.459 E6.31321
G1 X106.664 Y125.104 E6.32619
G1 X106.01 Y124.647 E6.34211
G1 X103.833 Y123.177 E6.39453
G1 X101.705 Y121.825 E6.44485
G1 X99.531 Y120.53 E6.49534
G1 X97.523 Y119.402 E6.54131
G1 X96.755 Y118.925 E6.55935
G1 X96.034 Y118.382 E6.57736
G1 X95.362 Y117.778 E6.59539
G1 X94.747 Y117.117 E6.61341
G1 X94.193 Y116.403 E6.63144
G1 X93.705 Y115.644 E6.64945
G1 X93.285 Y114.845 E6.66746
G1 X92.937 Y114.011 E6.6855
G1 X92.665 Y113.15 E6.70352
G1 X92.47 Y112.268 E6.72154
G1 X92.354 Y111.372 E6.73957
G1 X92.319 Y110.698 E6.75304
G1 X92.3 Y109.594 E6.77508
G1 X92.301 Y103.8 E6.8907
G1 F1500 E0.3907
;MESH:PCB_Standoff.STL
G0 F6000 X101.835 Y103.8
G0 X102.92 Y103.8
G0 X104.803 Y104.603
G0 X106.5 Y106.04
;TYPE:WALL-INNER
G1 F1500 E6.8907
G1 F1200 X106.5 Y104.777 E6.91591
G1 X106.5 Y104.25 E6.92642
G1 X105.973 Y104.25 E6.93694
G1 F1090.9 X105.604 Y104.29 E6.94509
G1 F921.3 X105.235 Y104.331 E6.95474
G1 F854.1 X104.765 Y104.331 E6.96792
G1 F921.3 X104.396 Y104.291 E6.97756
G1 F1090.9 X104.027 Y104.251 E6.98571
G1 F1200 X103.501 Y104.251 E6.99621
G1 X103.501 Y106.037 E7.03185
G1 X104.362 Y105.182 E7.05606
G1 F1090.9 X104.587 Y105.035 E7.06196
G1 F921.3 X104.813 Y104.887 E7.06899
G1 F854.1 X105.187 Y104.887 E7.07947
G1 F921.3 X105.412 Y105.034 E7.08646
G1 F1090.9 X105.638 Y105.182 E7.09239
G1 F1200 X106.5 Y106.04 E7.11666
G0 F6000 X106.827 Y106.933
G1 F1200 X106.9 Y107.11 E7.12048
G1 X106.9 Y104.777 E7.16704
G1 X106.9 Y103.85 E7.18554
G1 X103.101 Y103.851 E7.26135
G1 X103.101 Y107.108 E7.32635
G1 X103.172 Y106.932 E7.33014
G1 X104.617 Y105.49 E7.37087
G1 X104.896 Y105.361 E7.37701
G1 X105.104 Y105.361 E7.38116
G1 X105.383 Y105.49 E7.38729
G1 X106.827 Y106.933 E7.42803
G1 F1500 E0.92803
G0 F6000 X106.662 Y106.43
G0 X106.838 Y107.069
G0 X107.057 Y109.592
G1 F1500 E7.42803
G0 F6000 X107.3 Y110.097
;TYPE:WALL-OUTER
G1 F1200 X107.3 Y108.998 E7.44996
G1 F1182.3 X107.287 Y108.73 E7.4554
G1 F1148.3 X107.274 Y108.461 E7.46101
G1 F1116.3 X107.261 Y108.192 E7.46679
G1 F1083.5 X107.248 Y107.923 E7.47274
G1 F1054.9 X107.235 Y107.654 E7.47886
G1 F1027.8 X107.221 Y107.386 E7.48511
G1 F1098.4 X107.3 Y106.903 E7.49578
G1 F1200 X107.3 Y104.777 E7.53821
G1 X107.3 Y103.45 E7.56469
G1 X102.701 Y103.451 E7.65647
G1 X102.701 Y106.903 E7.72536
G1 F1098.4 X102.779 Y107.389 E7.73609
G1 F1027.8 X102.766 Y107.656 E7.74231
G1 F1054.9 X102.753 Y107.924 E7.74841
G1 F1083.5 X102.74 Y108.192 E7.75434
G1 F1116.3 X102.727 Y108.46 E7.76009
G1 F1148.3 X102.714 Y108.728 E7.76569
G1 F1182.3 X102.701 Y108.996 E7.77112
G1 F1200 X102.7 Y110.097 E7.79309
G1 X103.823 Y109.204 E7.82173
G1 X103.748 Y108.878 E7.8284
G1 F1191.1 X103.676 Y108.626 E7.83367
G1 F1173.6 X103.603 Y108.373 E7.83904
G1 F1156.6 X103.531 Y108.12 E7.84449
G1 F1140.1 X103.458 Y107.867 E7.85002
G1 F1124.1 X103.386 Y107.614 E7.85563
G1 F1108.5 X103.313 Y107.361 E7.86131
G1 F1106 X103.507 Y107.164 E7.8673
G1 F1116.3 X103.702 Y106.969 E7.87322
G1 F1129.4 X103.897 Y106.774 E7.87906
G1 F1142.9 X104.092 Y106.578 E7.88486
G1 F1153.8 X104.287 Y106.383 E7.89058
G1 F1167.9 X104.483 Y106.188 E7.89625
G1 F1182.3 X104.678 Y105.992 E7.90185
G1 F1194 X104.873 Y105.797 E7.90738
G1 F1200 X105.035 Y105.755 E7.91072
G1 X105.128 Y105.798 E7.91276
G1 F1194 X105.323 Y105.993 E7.9183
G1 F1182.3 X105.518 Y106.188 E7.92388
G1 F1167.9 X105.713 Y106.383 E7.92954
G1 F1153.8 X105.908 Y106.579 E7.93527
G1 F1142.9 X106.103 Y106.774 E7.94105
G1 F1129.4 X106.299 Y106.969 E7.94692
G1 F1116.3 X106.494 Y107.165 E7.95285
G1 F1106 X106.689 Y107.36 E7.95882
G1 F1108.5 X106.616 Y107.611 E7.96446
G1 F1124.1 X106.544 Y107.864 E7.97007
G1 F1140.1 X106.471 Y108.117 E7.9756
G1 F1156.6 X106.399 Y108.37 E7.98105
G1 F1173.6 X106.326 Y108.623 E7.98642
G1 F1191.1 X106.254 Y108.876 E7.99171
G1 F1200 X106.177 Y109.204 E7.99843
G1 X107.3 Y110.097 E8.02706
G0 F6000 X107.057 Y109.592
G0 X106.851 Y108.998
;TYPE:WALL-INNER
G1 F725.1 X106.81 Y109.069 E8.02977
G1 X106.728 Y109.069 E8.03248
G1 X106.688 Y108.998 E8.03517
G1 X106.729 Y108.927 E8.03788
G1 X106.81 Y108.927 E8.04055
G0 F6000 X106.88 Y107.219
G0 X105 Y105.347
G0 X103.12 Y107.219
G0 X103.313 Y108.998
G1 F725.1 X103.272 Y109.069 E8.04326
G1 X103.19 Y109.069 E8.04597
G1 X103.15 Y108.998 E8.04866
G1 X103.191 Y108.927 E8.05137
G1 X103.272 Y108.927 E8.05404
G0 F6000 X103.12 Y107.219
G0 X104.011 Y105.384
G0 X103.843 Y105.214
;TYPE:SKIN
G1 F1322.3 X104.142 Y104.919 E8.06165
G1 X104.441 Y104.686 E8.06852
G1 X104.009 Y104.593 E8.07652
G1 X103.843 Y104.593 E8.07952
G1 X103.843 Y105.214 E8.09077
G0 F6000 X104.011 Y105.383
G0 X105 Y104.782
G0 X105.989 Y105.385
G0 X106.158 Y105.217
G1 F1315.1 X106.158 Y104.743 E8.0994
G1 X106.158 Y104.592 E8.10215
G1 X105.991 Y104.592 E8.10519
G1 X105.559 Y104.687 E8.11325
G1 X105.85 Y104.914 E8.11997
G1 X106.158 Y105.217 E8.12784
G0 F6000 X106.058 Y105.316
G1 F1500 E1.62784
G0 F6000 X105.988 Y105.384
G0 X106.88 Y107.219
G0 X107.08 Y108.798
G0 X108.165 Y108.798
G0 X113.004 Y107.732
G0 X114.058 Y107.485
G0 X115 Y108.798
;TYPE:WALL-INNER
G1 F1500 E8.12784
G1 F1014.8 X115.26 Y107.681 E8.1549
G1 X115 Y107.42 E8.16359
G1 X114.74 Y107.681 E8.17229
G1 X115 Y108.798 E8.19935
G0 F6000 X114.979 Y109.605
G0 X113.664 Y111.074
G0 X113.5 Y115.75
G1 F1200 X116.5 Y115.75 E8.25922
G1 X116.5 Y111.717 E8.3397
G1 X116.5 Y110.994 E8.35413
G1 X115.328 Y110.063 E8.384
G1 X115.061 Y109.736 E8.39243
G1 X115 Y109.523 E8.39685
G1 X114.939 Y109.736 E8.40127
G1 X114.672 Y110.063 E8.40969
G1 X113.5 Y110.994 E8.43956
G1 X113.5 Y115.75 E8.53447
G0 F6000 X113.1 Y116.15
G1 F1200 X116.9 Y116.15 E8.61031
G1 X116.9 Y111.717 E8.69877
G1 X116.9 Y110.802 E8.71703
G1 X115.578 Y109.75 E8.75075
G1 X115.417 Y109.554 E8.75581
G1 F1006.3 X115.277 Y109.339 E8.76191
G1 F909.1 X115.318 Y109.132 E8.76747
G1 F979.6 X115.385 Y108.887 E8.77368
G1 F1021.3 X115.452 Y108.642 E8.77964
G1 F1066.7 X115.52 Y108.397 E8.78535
G1 F1116.3 X115.587 Y108.152 E8.7908
G1 F1170.7 X115.655 Y107.907 E8.796
G1 F1200 X115.74 Y107.544 E8.80344
G1 X115 Y106.803 E8.82434
G1 X114.26 Y107.544 E8.84523
G1 X114.344 Y107.907 E8.85267
G1 F1170.7 X114.411 Y108.152 E8.85786
G1 F1116.3 X114.479 Y108.397 E8.86332
G1 F1066.7 X114.546 Y108.642 E8.86902
G1 F1021.3 X114.614 Y108.887 E8.87498
G1 F979.6 X114.682 Y109.132 E8.8812
G1 F909.1 X114.723 Y109.339 E8.88676
G1 F1006.3 X114.583 Y109.554 E8.89286
G1 F1200 X114.422 Y109.75 E8.89793
G1 X113.1 Y110.802 E8.93164
G1 X113.1 Y116.15 E9.03837
G0 F6000 X112.7 Y116.55
;TYPE:WALL-OUTER
G1 F1200 X117.3 Y116.55 E9.13016
G1 X117.3 Y111.717 E9.22661
G1 X117.3 Y110.609 E9.24872
G1 X115.778 Y109.398 E9.28754
G1 X115.752 Y109.262 E9.2903
G1 X116.18 Y107.418 E9.32808
