;FLAVOR:Marlin
;TIME:1889
;Filament used: 1.35366m
;Layer height: 0.2
;MINX:89
;MINY:89
;MINZ:0.2
;MAXX:131
;MAXY:131
;MAXZ:20
;Generated with Cura_SteamEngine main
M82 ;absolute extrusion mode
; Ender 3 Custom Start G-code
G92 E0 ; Reset Extruder
G28 ; Home all axes
M104 S175 ; Start heating up the nozzle most of the way
M190 S60 ; Start heating the bed, wait until target temperature reached
M109 S200 ; Finish heating the nozzle
G1 Z2.0 F3000 ; Move Z Axis up little to prevent scratching of Heat Bed
G1 X0.1 Y20 Z0.3 F5000.0 ; Move to start position
G1 X0.1 Y200.0 Z0.3 F1500.0 E15 ; Draw the first line
G1 X0.4 Y200.0 Z0.3 F5000.0 ; Move to side a little
G1 X0.4 Y20 Z0.3 F1500.0 E30 ; Draw the second line
G92 E0 ; Reset Extruder
G1 Z2.0 F3000 ; Move Z Axis up little to prevent scratching of Heat Bed
G1 X5 Y20 Z0.3 F5000.0 ; Move over to prevent blob squish
G92 E0
G92 E0
G1 F1500 E-6.5
;LAYER_COUNT:100
;LAYER:0
M107
G0 F6000 X92.198 Y92.264 Z0.2
G0 X89.001 Y100.525
;TYPE:SKIRT
G1 F1500 E0
G1 F1200 X89.01 Y99.86 E0.02212
G1 X89.063 Y98.924 E0.0533
G1 X89.195 Y97.995 E0.08451
G1 X89.406 Y97.081 E0.11571
G1 X89.694 Y96.189 E0.14689
G1 X90.057 Y95.324 E0.17809
G1 X90.492 Y94.493 E0.20928
G1 X90.996 Y93.703 E0.24045
G1 X91.566 Y92.958 E0.27165
G1 X92.198 Y92.264 E0.30287
G1 X92.886 Y91.627 E0.33405
G1 X93.626 Y91.051 E0.36524
G1 X94.412 Y90.539 E0.39644
G1 X95.239 Y90.097 E0.42763
G1 X96.101 Y89.727 E0.45883
G1 X96.991 Y89.431 E0.49003
G1 X97.903 Y89.213 E0.52122
G1 X98.83 Y89.072 E0.5524
G1 X99.701 Y89.013 E0.58144
G1 X100.33 Y89 E0.60236
G1 X119.451 Y89.001 E1.23833
G1 X120.149 Y89.011 E1.26155
G1 X121.085 Y89.065 E1.29273
G1 X122.013 Y89.197 E1.32391
G1 X122.927 Y89.409 E1.35511
G1 X123.819 Y89.698 E1.3863
G1 X124.684 Y90.061 E1.4175
G1 X125.514 Y90.497 E1.44868
G1 X126.305 Y91.002 E1.4799
G1 X127.049 Y91.573 E1.51109
G1 X127.742 Y92.205 E1.54229
G1 X128.379 Y92.893 E1.57347
G1 X128.954 Y93.634 E1.60467
G1 X129.465 Y94.42 E1.63585
G1 X129.907 Y95.248 E1.66707
G1 X130.276 Y96.11 E1.69825
G1 X130.571 Y97 E1.72944
G1 X130.789 Y97.912 E1.76063
G1 X130.929 Y98.84 E1.79184
G1 X130.987 Y99.701 E1.82054
G1 X131 Y100.33 E1.84147
G1 X130.999 Y119.4 E2.47574
G1 X130.99 Y120.127 E2.49992
G1 X130.939 Y121.064 E2.53113
G1 X130.807 Y121.992 E2.56231
G1 X130.598 Y122.906 E2.59349
G1 X130.311 Y123.799 E2.62469
G1 X129.949 Y124.665 E2.65591
G1 X129.515 Y125.496 E2.68709
G1 X129.011 Y126.287 E2.71828
G1 X128.442 Y127.032 E2.74946
G1 X127.811 Y127.727 E2.78069
G1 X127.124 Y128.365 E2.81187
G1 X126.385 Y128.942 E2.84305
G1 X125.599 Y129.454 E2.87425
G1 X124.773 Y129.897 E2.90543
G1 X123.911 Y130.269 E2.93665
G1 X123.022 Y130.565 E2.96782
G1 X122.11 Y130.785 E2.99902
G1 X121.183 Y130.926 E3.03021
G1 X120.299 Y130.987 E3.05968
G1 X119.67 Y131 E3.0806
G1 X100.565 Y130.999 E3.71604
G1 X99.867 Y130.99 E3.73926
G1 X98.931 Y130.938 E3.77044
G1 X98.002 Y130.806 E3.80165
G1 X97.088 Y130.596 E3.83284
G1 X96.195 Y130.309 E3.86403
G1 X95.33 Y129.946 E3.89524
G1 X94.499 Y129.512 E3.92642
G1 X93.708 Y129.008 E3.95761
G1 X92.963 Y128.438 E3.98881
G1 X92.269 Y127.807 E4.02001
G1 X91.632 Y127.12 E4.05117
G1 X91.055 Y126.38 E4.08238
G1 X90.543 Y125.594 E4.11358
G1 X90.1 Y124.767 E4.14478
G1 X89.729 Y123.906 E4.17597
G1 X89.433 Y123.016 E4.20716
G1 X89.214 Y122.104 E4.23836
G1 X89.073 Y121.177 E4.26954
G1 X89.013 Y120.288 E4.29918
G1 X89 Y119.658 E4.32014
G1 X89.001 Y100.525 E4.9565
G0 F6000 X89.401 Y100.531
G1 F1200 X89.41 Y99.866 E4.97862
G1 X89.462 Y98.946 E5.00927
G1 X89.594 Y98.035 E5.03989
G1 X89.805 Y97.139 E5.0705
G1 X90.092 Y96.264 E5.10113
G1 X90.455 Y95.418 E5.13175
G1 X90.889 Y94.606 E5.16237
G1 X91.392 Y93.835 E5.19299
G1 X91.961 Y93.111 E5.22362
G1 X92.589 Y92.439 E5.25421
G1 X93.274 Y91.823 E5.28485
G1 X94.01 Y91.27 E5.31547
G1 X94.791 Y90.782 E5.3461
G1 X95.611 Y90.364 E5.37671
G1 X96.465 Y90.019 E5.40735
G1 X97.345 Y89.749 E5.43796
G1 X98.245 Y89.557 E5.46857
G1 X99.159 Y89.443 E5.49921
G1 X99.712 Y89.413 E5.51763
G1 X100.33 Y89.4 E5.53819
G1 X119.293 Y89.4 E6.1689
G1 X120.143 Y89.411 E6.19717
G1 X121.062 Y89.464 E6.22779
G1 X121.973 Y89.597 E6.25841
G1 X122.869 Y89.808 E6.28903
G1 X123.743 Y90.096 E6.31963
G1 X124.59 Y90.459 E6.35028
G1 X125.401 Y90.894 E6.38089
G1 X126.171 Y91.398 E6.4115
G1 X126.895 Y91.967 E6.44213
G1 X127.567 Y92.597 E6.47276
G1 X128.182 Y93.282 E6.50338
G1 X128.735 Y94.018 E6.534
G1 X129.222 Y94.799 E6.56461
G1 X129.639 Y95.62 E6.59524
G1 X129.984 Y96.474 E6.62588
G1 X130.253 Y97.354 E6.65648
G1 X130.445 Y98.255 E6.68712
G1 X130.558 Y99.168 E6.71772
G1 X130.587 Y99.712 E6.73584
G1 X130.6 Y100.33 E6.7564
G1 X130.599 Y119.395 E7.3905
G1 X130.59 Y120.122 E7.41468
G1 X130.539 Y121.041 E7.4453
G1 X130.408 Y121.953 E7.47594
G1 X130.198 Y122.849 E7.50655
G1 X129.912 Y123.724 E7.53717
G1 X129.551 Y124.571 E7.56779
G1 X129.117 Y125.383 E7.59841
G1 X128.615 Y126.155 E7.62904
G1 X128.047 Y126.88 E7.65968
G1 X127.419 Y127.553 E7.69029
G1 X126.735 Y128.169 E7.72091
G1 X126 Y128.723 E7.75152
G1 X125.22 Y129.212 E7.78214
G1 X124.4 Y129.631 E7.81277
G1 X123.547 Y129.977 E7.84338
G1 X122.667 Y130.248 E7.87401
G1 X121.767 Y130.441 E7.90462
G1 X120.853 Y130.556 E7.93526
G1 X120.288 Y130.587 E7.95408
G1 X119.67 Y130.6 E7.97464
G1 X100.57 Y130.599 E8.60991
G1 X99.872 Y130.59 E8.63313
G1 X98.953 Y130.538 E8.66374
G1 X98.042 Y130.407 E8.69435
G1 X97.146 Y130.197 E8.72496
G1 X96.271 Y129.91 E8.75559
G1 X95.424 Y129.548 E8.78623
G1 X94.612 Y129.114 E8.81685
G1 X93.841 Y128.612 E8.84745
G1 X93.116 Y128.044 E8.87808
G1 X92.443 Y127.415 E8.90872
G1 X91.828 Y126.731 E8.93932
G1 X91.274 Y125.996 E8.96993
G1 X90.786 Y125.215 E9.00056
G1 X90.367 Y124.395 E9.03119
G1 X90.021 Y123.542 E9.0618
G1 X89.751 Y122.662 E9.09242
G1 X89.558 Y121.761 E9.12307
G1 X89.444 Y120.848 E9.15367
G1 X89.413 Y120.277 E9.17269
G1 X89.4 Y119.658 E9.19328
G1 X89.401 Y100.531 E9.82945
G0 F6000 X89.801 Y100.536
G1 F1200 X89.81 Y99.871 E9.85157
G1 X89.862 Y98.969 E9.88162
G1 X89.994 Y98.076 E9.91164
G1 X90.204 Y97.198 E9.94167
G1 X90.491 Y96.341 E9.97173
G1 X90.853 Y95.514 E10.00175
G1 X91.286 Y94.722 E10.03177
G1 X91.788 Y93.971 E10.06182
G1 X92.355 Y93.267 E10.09188
G1 X92.981 Y92.617 E10.1219
G1 X93.662 Y92.024 E10.15193
G1 X94.394 Y91.494 E10.18199
G1 X95.169 Y91.031 E10.21202
G1 X95.982 Y90.638 E10.24205
G1 X96.827 Y90.318 E10.2721
G1 X97.696 Y90.075 E10.30212
G1 X98.584 Y89.909 E10.33216
G1 X99.723 Y89.813 E10.37018
G1 X100.33 Y89.8 E10.39037
G1 X119.293 Y89.8 E11.02109
G1 X120.137 Y89.811 E11.04916
G1 X121.039 Y89.864 E11.07921
G1 X121.932 Y89.996 E11.10924
G1 X122.81 Y90.207 E11.13927
G1 X123.666 Y90.495 E11.16931
G1 X124.493 Y90.857 E11.19933
G1 X125.285 Y91.292 E11.22939
G1 X126.036 Y91.794 E11.25943
G1 X126.739 Y92.361 E11.28947
G1 X127.389 Y92.988 E11.31951
G1 X127.981 Y93.67 E11.34955
G1 X128.511 Y94.401 E11.37958
G1 X128.973 Y95.177 E11.40962
G1 X129.366 Y95.99 E11.43965
G1 X129.684 Y96.835 E11.46968
G1 X129.927 Y97.705 E11.49972
G1 X130.092 Y98.593 E11.52976
G1 X130.187 Y99.723 E11.56748
G1 X130.2 Y100.33 E11.58767
G1 X130.199 Y119.39 E12.22161
G1 X130.19 Y120.117 E12.24579
G1 X130.139 Y121.019 E12.27584
G1 X130.008 Y121.913 E12.30589
G1 X129.799 Y122.791 E12.33591
G1 X129.513 Y123.648 E12.36596
G1 X129.152 Y124.476 E12.39601
G1 X128.72 Y125.268 E12.42601
G1 X128.219 Y126.02 E12.45607
G1 X127.653 Y126.724 E12.48611
G1 X127.028 Y127.375 E12.51613
G1 X126.347 Y127.969 E12.54618
G1 X125.616 Y128.5 E12.57623
G1 X124.842 Y128.964 E12.60625
G1 X124.029 Y129.358 E12.6363
G1 X123.185 Y129.678 E12.66632
G1 X122.315 Y129.923 E12.69638
G1 X121.428 Y130.089 E12.72639
G1 X120.277 Y130.187 E12.76481
G1 X119.67 Y130.2 E12.78501
G1 X100.575 Y130.199 E13.42011
G1 X99.877 Y130.19 E13.44333
G1 X98.976 Y130.139 E13.47334
G1 X98.082 Y130.007 E13.5034
G1 X97.204 Y129.798 E13.53342
G1 X96.347 Y129.511 E13.56348
G1 X95.52 Y129.15 E13.59349
G1 X94.727 Y128.717 E13.62354
G1 X93.976 Y128.216 E13.65357
G1 X93.272 Y127.65 E13.68361
G1 X92.621 Y127.024 E13.71365
G1 X92.028 Y126.343 E13.74368
G1 X91.498 Y125.612 E13.77372
G1 X91.034 Y124.837 E13.80376
G1 X90.64 Y124.024 E13.83381
G1 X90.32 Y123.18 E13.86383
G1 X90.076 Y122.31 E13.89388
G1 X89.91 Y121.422 E13.92393
G1 X89.813 Y120.267 E13.96248
G1 X89.8 Y119.658 E13.98274
G1 X89.801 Y100.536 E14.61874
G1 F1500 E8.11874
;MESH:xyzCalibration_cube.stl
G0 F6000 X99.335 Y100.536
G0 X100.6 Y119.4
;TYPE:WALL-INNER
G1 F1500 E14.61874
G1 F1200 X119.4 Y119.4 E15.24403
G1 X119.4 Y110 E15.55668
G1 X119.4 Y100.6 E15.86932
G1 X100.6 Y100.6 E16.49461
G1 X100.6 Y119.4 E17.1199
G0 F6000 X100.2 Y119.8
;TYPE:WALL-OUTER
G1 F1200 X119.8 Y119.8 E17.7718
G1 X119.8 Y110 E18.09775
G1 X119.8 Y100.2 E18.4237
G1 X100.2 Y100.2 E19.0756
G1 X100.2 Y119.8 E19.7275
G0 F6000 X100.47 Y119.53
G0 X100.7 Y119.04
G0 X100.96 Y119.04
;TYPE:SKIN
G1 F1200 X119.04 Y119.04 E20.32884
G1 X119.04 Y110 E20.62951
G1 X119.04 Y100.96 E20.93018
G1 X100.96 Y100.96 E21.53153
G1 X100.96 Y119.04 E22.13287
G1 F1500 E15.63287
G0 F6000 X100.7 Y119.04
G0 X119.228 Y119.228
G0 X119.3 Y101.303
G1 F1500 E22.13287
G0 F6000 X118.839 Y101.303
G1 F1200 X118.696 Y101.16 E22.1396
G0 F6000 X118.13 Y101.16
G1 F1200 X118.839 Y101.869 E22.17294
G0 F6000 X118.839 Y102.435
G1 F1200 X117.564 Y101.16 E22.23292
G0 F6000 X116.999 Y101.16
G1 F1200 X118.839 Y103 E22.31946
G0 F6000 X118.839 Y103.566
G1 F1200 X116.433 Y101.16 E22.43264
G0 F6000 X115.867 Y101.16
G1 F1200 X118.839 Y104.132 E22.57243
G0 F6000 X118.839 Y104.697
G1 F1200 X115.302 Y101.16 E22.7388
G0 F6000 X114.736 Y101.16
G1 F1200 X118.839 Y105.263 E22.93179
G0 F6000 X118.839 Y105.829
G1 F1200 X114.17 Y101.16 E23.15141
G0 F6000 X113.605 Y101.16
G1 F1200 X118.839 Y106.394 E23.3976
G0 F6000 X118.839 Y106.96
G1 F1200 X113.039 Y101.16 E23.67041
G0 F6000 X112.473 Y101.16
G1 F1200 X118.839 Y107.526 E23.96985
G0 F6000 X118.839 Y108.091
G1 F1200 X111.908 Y101.16 E24.29586
G0 F6000 X111.342 Y101.16
G1 F1200 X118.839 Y108.657 E24.6485
G0 F6000 X118.839 Y109.223
G1 F1200 X110.776 Y101.16 E25.02776
G0 F6000 X110.211 Y101.16
G1 F1200 X118.839 Y109.788 E25.43359
G0 F6000 X118.839 Y110.354
G1 F1200 X109.645 Y101.16 E25.86605
G0 F6000 X109.079 Y101.16
G1 F1200 X118.839 Y110.92 E26.32513
G0 F6000 X118.839 Y111.485
G1 F1200 X108.514 Y101.16 E26.81079
G0 F6000 X107.948 Y101.16
G1 F1200 X118.839 Y112.051 E27.32307
G0 F6000 X118.839 Y112.617
G1 F1200 X107.382 Y101.16 E27.86197
G0 F6000 X106.816 Y101.16
G1 F1200 X118.839 Y113.183 E28.42749
G0 F6000 X118.839 Y113.748
G1 F1200 X106.251 Y101.16 E29.01959
G0 F6000 X105.685 Y101.16
G1 F1200 X118.839 Y114.314 E29.63832
G0 F6000 X118.839 Y114.88
G1 F1200 X105.119 Y101.16 E30.28366
G0 F6000 X104.554 Y101.16
G1 F1200 X118.839 Y115.445 E30.95559
G0 F6000 X118.839 Y116.011
G1 F1200 X103.988 Y101.16 E31.65413
G0 F6000 X103.422 Y101.16
G1 F1200 X118.839 Y116.577 E32.3793
G0 F6000 X118.839 Y117.142
G1 F1200 X102.857 Y101.16 E33.13104
G0 F6000 X102.291 Y101.16
G1 F1200 X118.839 Y117.708 E33.90941
G0 F6000 X118.839 Y118.274
G1 F1200 X101.725 Y101.16 E34.7144
G0 F6000 X101.159 Y101.159
G1 F1200 X118.839 Y118.839 E35.54602
G0 F6000 X118.273 Y118.839
G1 F1200 X101.159 Y101.725 E36.35101
G0 F6000 X101.159 Y102.29
G1 F1200 X117.707 Y118.839 E37.1294
G0 F6000 X117.142 Y118.839
G1 F1200 X101.159 Y102.856 E37.88119
G0 F6000 X101.159 Y103.422
G1 F1200 X116.576 Y118.839 E38.60636
G0 F6000 X116.01 Y118.839
G1 F1200 X101.159 Y103.987 E39.30492
G0 F6000 X101.159 Y104.553
G1 F1200 X115.445 Y118.839 E39.97689
G0 F6000 X114.879 Y118.839
G1 F1200 X101.159 Y105.119 E40.62224
G0 F6000 X101.159 Y105.684
G1 F1200 X114.313 Y118.839 E41.24099
G0 F6000 X113.748 Y118.839
G1 F1200 X101.159 Y106.25 E41.83314
G0 F6000 X101.159 Y106.816
G1 F1200 X113.182 Y118.839 E42.39866
G0 F6000 X112.616 Y118.839
G1 F1200 X101.159 Y107.381 E42.93759
G0 F6000 X101.159 Y107.947
G1 F1200 X112.05 Y118.839 E43.44989
G0 F6000 X111.485 Y118.839
G1 F1200 X101.159 Y108.513 E43.93559
G0 F6000 X101.159 Y109.078
G1 F1200 X110.919 Y118.839 E44.3947
G0 F6000 X110.353 Y118.839
G1 F1200 X101.159 Y109.644 E44.82718
G0 F6000 X101.159 Y110.21
G1 F1200 X109.788 Y118.839 E45.23306
G0 F6000 X109.222 Y118.839
G1 F1200 X101.159 Y110.776 E45.61232
G0 F6000 X101.159 Y111.341
G1 F1200 X108.656 Y118.839 E45.96498
G0 F6000 X108.091 Y118.839
G1 F1200 X101.159 Y111.907 E46.29104
G0 F6000 X101.159 Y112.473
G1 F1200 X107.525 Y118.839 E46.59048
G0 F6000 X106.959 Y118.839
G1 F1200 X101.159 Y113.038 E46.86331
G0 F6000 X101.159 Y113.604
G1 F1200 X106.394 Y118.839 E47.10955
G0 F6000 X105.828 Y118.839
G1 F1200 X101.159 Y114.17 E47.32917
G0 F6000 X101.159 Y114.735
G1 F1200 X105.262 Y118.839 E47.52218
G0 F6000 X104.697 Y118.839
G1 F1200 X101.159 Y115.301 E47.6886
G0 F6000 X101.159 Y115.867
G1 F1200 X104.131 Y118.839 E47.82839
G0 F6000 X103.565 Y118.839
G1 F1200 X101.159 Y116.432 E47.94159
G0 F6000 X101.159 Y116.998
G1 F1200 X103 Y118.839 E48.02818
G0 F6000 X102.434 Y118.839
G1 F1200 X101.159 Y117.564 E48.08816
G0 F6000 X101.159 Y118.129
G1 F1200 X101.868 Y118.839 E48.12153
G0 F6000 X101.302 Y118.839
M104 S200
G1 F1200 X101.159 Y118.695 E48.12828
;MESH:NONMESH
G0 F300 X101.159 Y118.695 Z0.4
G0 F6000 X100.6 Y119.4
;TIME_ELAPSED:84.669437
;LAYER:1
M106 S85
;TYPE:WALL-INNER
;MESH:xyzCalibration_cube.stl
G1 F1800 X119.4 Y119.4 E48.75357
G1 X119.4 Y100.6 E49.37886
G1 X100.6 Y100.6 E50.00415
G1 X100.6 Y119.4 E50.62944
G0 F9000 X100.2 Y119.8
;TYPE:WALL-OUTER
G1 F1800 X119.8 Y119.8 E51.28134
G1 X119.8 Y100.2 E51.93324
G1 X100.2 Y100.2 E52.58514
G1 X100.2 Y119.8 E53.23703
G0 F9000 X100.47 Y119.53
G0 X100.7 Y119.04
G0 X100.96 Y119.04
;TYPE:SKIN
G1 F1800 X119.04 Y119.04 E53.83838
G1 X119.04 Y110 E54.13905
G1 X119.04 Y100.96 E54.43972
G1 X100.96 Y100.96 E55.04106
G1 X100.96 Y119.04 E55.64241
G0 F9000 X100.7 Y119.04
G0 X100.7 Y101.355
G0 X101.16 Y101.355
G1 F1800 X101.355 Y101.159 E55.6516
G0 F9000 X101.921 Y101.159
G1 F1800 X101.16 Y101.92 E55.6874
G0 F9000 X101.16 Y102.486
G1 F1800 X102.487 Y101.159 E55.74982
G0 F9000 X103.053 Y101.159
G1 F1800 X101.16 Y103.052 E55.83886
G0 F9000 X101.16 Y103.618
G1 F1800 X103.618 Y101.159 E55.9545
G0 F9000 X104.184 Y101.159
G1 F1800 X101.16 Y104.183 E56.09674
G0 F9000 X101.16 Y104.749
G1 F1800 X104.75 Y101.159 E56.2656
G0 F9000 X105.315 Y101.159
G1 F1800 X101.16 Y105.315 E56.46106
G0 F9000 X101.16 Y105.88
G1 F1800 X105.881 Y101.159 E56.68312
G0 F9000 X106.447 Y101.159
G1 F1800 X101.16 Y106.446 E56.93181
G0 F9000 X101.16 Y107.012
G1 F1800 X107.012 Y101.159 E57.20709
G0 F9000 X107.578 Y101.159
G1 F1800 X101.16 Y107.577 E57.50897
G0 F9000 X101.16 Y108.143
G1 F1800 X108.144 Y101.159 E57.83748
G0 F9000 X108.709 Y101.159
G1 F1800 X101.16 Y108.709 E58.19259
G0 F9000 X101.16 Y109.274
G1 F1800 X109.275 Y101.159 E58.57429
G0 F9000 X109.841 Y101.159
G1 F1800 X101.16 Y109.84 E58.98262
G0 F9000 X101.16 Y110.406
G1 F1800 X110.406 Y101.159 E59.41754
G0 F9000 X110.972 Y101.159
G1 F1800 X101.16 Y110.971 E59.87907
G0 F9000 X101.16 Y111.537
G1 F1800 X111.538 Y101.159 E60.36722
G0 F9000 X112.104 Y101.159
G1 F1800 X101.16 Y112.103 E60.88199
G0 F9000 X101.16 Y112.668
G1 F1800 X112.669 Y101.159 E61.42334
G0 F9000 X113.235 Y101.159
G1 F1800 X101.16 Y113.234 E61.99131
G0 F9000 X101.16 Y113.8
G1 F1800 X113.801 Y101.159 E62.58591
G0 F9000 X114.366 Y101.159
G1 F1800 X101.16 Y114.366 E63.2071
G0 F9000 X101.16 Y114.931
G1 F1800 X114.932 Y101.159 E63.85489
G0 F9000 X115.498 Y101.159
G1 F1800 X101.16 Y115.497 E64.52931
G0 F9000 X101.16 Y116.063
G1 F1800 X116.063 Y101.159 E65.23032
G0 F9000 X116.629 Y101.159
G1 F1800 X101.16 Y116.628 E65.95794
G0 F9000 X101.16 Y117.194
